X:70
T:McDermott's
M:4/4
L:1/8
R:reel
N:Learned from Sheet Music and Kira Ott
N:Set is The Curlew - ~ - Three Scones of Boxty - Unnamed Reel
N:After The Curlew, the first measure is played `d3e fded.'
K:D
Adde fded|ABAG EFDe|fded cAAG|EFGE D2de|
fded ABAG|EFGA ABde|fded cAAG|EFGE D2FG:|
|:Adde fage|dfed cAAF|~G3A GE~E2|edcA GE~E2|
Adde fage|dfed cAAe|fd~d2 ge~e2|fage d2FG:|
